icons/radioactive.svg

<svg width="24" height="24" viewBox="0 0 24 24" fill="none" xmlns="http://www.w3.org/2000/svg">
<path fill-rule="evenodd" clip-rule="evenodd" d="M7 3.3439C8.52019 2.46621 10.2446 2.00415 12 2.00415C13.7554 2.00415 15.4798 2.46621 17 3.3439C17.2298 3.47655 17.3974 3.69507 17.466 3.95135C17.5346 4.20763 17.4985 4.48067 17.3658 4.71037L14.3658 9.90037C14.0895 10.3783 13.4781 10.542 13 10.2659C12.696 10.0904 12.3511 9.998 12 9.998C11.6489 9.998 11.304 10.0904 11 10.2659C10.5219 10.542 9.91052 10.3783 9.63423 9.90037L6.63423 4.71037C6.50146 4.48067 6.46541 4.20763 6.53401 3.95135C6.60261 3.69507 6.77024 3.47655 7 3.3439ZM8.8979 4.63007L10.9291 8.14402C11.2763 8.04753 11.6365 7.998 12 7.998C12.3635 7.998 12.7237 8.04753 13.0709 8.14402L15.1021 4.63007C14.1231 4.21825 13.0687 4.00415 12 4.00415C10.9313 4.00415 9.87686 4.21825 8.8979 4.63007ZM2.29273 11.293C2.48028 11.1053 2.7347 10.9999 3 10.9999H9C9.26533 10.9999 9.51978 11.1054 9.70733 11.293C9.89489 11.4807 10.0002 11.7352 10 12.0006C9.99977 12.3519 10.0921 12.697 10.2676 13.0013C10.4432 13.3056 10.6958 13.5583 11 13.7339C11.2298 13.8665 11.3974 14.0851 11.466 14.3414C11.5346 14.5976 11.4985 14.8707 11.3658 15.1004L8.36577 20.2904C8.08948 20.7683 7.47812 20.932 7 20.6559C5.4805 19.7787 4.21856 18.517 3.34092 16.9977C2.46328 15.4784 2.00082 13.755 2 12.0004C1.99988 11.7351 2.10518 11.4806 2.29273 11.293ZM4.06328 12.9999C4.19652 14.053 4.53846 15.0724 5.07274 15.9973C5.60719 16.9225 6.31977 17.7283 7.16578 18.3699L9.19715 14.8556C8.93994 14.603 8.71696 14.3157 8.53526 14.0007C8.35357 13.6858 8.21647 13.349 8.12652 12.9999H4.06328ZM14.2927 11.293C14.4802 11.1054 14.7347 10.9999 15 10.9999H21C21.2653 10.9999 21.5197 11.1053 21.7073 11.293C21.8948 11.4806 22.0001 11.7351 22 12.0004C21.9992 13.755 21.5367 15.4784 20.6591 16.9977C19.7814 18.517 18.5195 19.7787 17 20.6559C16.5219 20.932 15.9105 20.7683 15.6342 20.2904L12.6342 15.1004C12.5015 14.8707 12.4654 14.5976 12.534 14.3414C12.6026 14.0851 12.7702 13.8665 13 13.7339C13.3042 13.5583 13.5568 13.3056 13.7324 13.0013C13.9079 12.697 14.0002 12.3519 14 12.0006C13.9998 11.7352 14.1051 11.4807 14.2927 11.293ZM15.8735 12.9999C15.7835 13.349 15.6464 13.6858 15.4647 14.0007C15.283 14.3157 15.0601 14.603 14.8028 14.8556L16.8342 18.3699C17.6802 17.7283 18.3928 16.9225 18.9273 15.9973C19.4615 15.0724 19.8035 14.053 19.9367 12.9999H15.8735Z" fill="black"/>
</svg>

<svg
  width="24"
  height="24"
  viewBox="0 0 24 24"
  xmlns="http://www.w3.org/2000/svg"
>
  <path
    fill-rule="evenodd"
    clip-rule="evenodd"
    d="M7 3.344a10 10 0 0 1 10 0 1 1 0 0 1 .366 1.366l-3 5.19a1 1 0 0 1-1.366.366 2 2 0 0 0-2 0A1 1 0 0 1 9.634 9.9l-3-5.19A1 1 0 0 1 7 3.344zM8.898 4.63l2.031 3.514a4 4 0 0 1 2.142 0l2.031-3.514a8 8 0 0 0-6.204 0zm-6.605 6.663A1 1 0 0 1 3 11h6a1 1 0 0 1 1 1 2 2 0 0 0 1 1.734 1 1 0 0 1 .366 1.366l-3 5.19A1 1 0 0 1 7 20.656 10 10 0 0 1 2 12a1 1 0 0 1 .293-.707zM4.063 13a8 8 0 0 0 3.103 5.37l2.031-3.514A3.998 3.998 0 0 1 8.127 13H4.063zm10.23-1.707A1 1 0 0 1 15 11h6a1 1 0 0 1 1 1 10 10 0 0 1-5 8.656 1 1 0 0 1-1.366-.366l-3-5.19A1 1 0 0 1 13 13.734 2 2 0 0 0 14 12a1 1 0 0 1 .293-.708zM15.873 13a4 4 0 0 1-1.07 1.856l2.031 3.514A8 8 0 0 0 19.937 13h-4.064z"
  />
</svg>
